X:1
T:Title
%%score { ( 1 4 5 ) | ( 2 3 6 ) }
L:1/8
M:4/4
K:D
V:1 treble nm="Grand Piano"
V:4 treble 
V:5 treble 
V:2 bass 
V:3 bass 
V:6 bass 
V:1
 z4 z2 z[Q:1/4=100] [FA] | [Fd]3 [FA] [Ac]BA[B,EG] | [DF]EC-[CA] D3 G | G4 [Ae]4 | %4
[M:7/8] c-c-c- c3 z |[M:1/8] [FA] |[M:4/4] [Fd]3 [FA] [Ac]BA[B,EG] | [DF]EC-[CA] [F,D]3 [A,DF] | %8
 z .B3 z4 |[M:7/8] [Fd]-[Fd]-[Fd]- [Fd]3 z |[M:1/8] [Fd] |[M:4/4] c3 ^A BF G>F | G6 z F | E4 e4 | %14
[M:7/8] d2 c- c3 z |[M:1/8] [GA] |[M:4/4] [Fd]3 [FA] [Ac]B A>G | F6 z F | z2 z e A3 [Gc] | %19
[M:7/8] [Fd]-[Fd]-[Fd]- [Fd]3 z |] %20
V:2
 z4 z2 z [D,A,] | [D,A,]3 [F,D] z[K:treble] GFG, | z C[K:bass] z G, [D,F,]3 [D,B,D] | %3
 [B,D]A,G,E, CB,A,[^G,B,E] |[M:7/8] [A,E]-[A,E]-[A,E]- [A,E]3 z |[M:1/8] [D,A,] | %6
[M:4/4] [D,A,]3 [F,D] z[K:treble] GFG, | z C[K:bass] z G, D,3 =C, | %8
 z2[K:treble] z ^G[K:bass] z D z E |[M:7/8] [D,A,]-[D,A,]-[D,A,]- [D,A,]3 z |[M:1/8] [D,A,] | %11
[M:4/4][K:treble] [F,^A,F]3 [F,CF] [B,DF][B,D] [B,E]>[K:bass][B,^D] | [E,B,E]6 z [F,^A,C] | %13
 [G,B,]F,E,[E,B,E] E-[F,E-][E,E][=F,B,G] |[M:7/8] F2- [E,^A,F]- [E,A,F]2- [E,-A,-F]/[E,A,]/ z | %15
[M:1/8] [E,A,] |[M:4/4] [D,A,]3 [F,A,] [F,A,][K:treble][G,B,G] [A,CF]>[K:bass][A,CE] | %17
 [D,D]6 z [A,=CD] | D3[K:treble] G [A,CE]3[K:bass] [A,,A,] | %19
[M:7/8] [D,A,]-[D,A,]-[D,A,]- [D,A,]3 z |] %20
V:3
 x8 | z4 [F,A,]4[K:treble] | A,2[K:bass] A,,2 z4 | x8 |[M:7/8] x7 |[M:1/8] x | %6
[M:4/4] z4 [F,A,]4[K:treble] | A,2[K:bass] A,,2 z4 | z[K:treble] .G3[K:bass] z2 A,2 |[M:7/8] x7 | %10
[M:1/8] x |[M:4/4][K:treble] x15/2[K:bass] x/ | x8 | z4 .[G,B,]2 z2 |[M:7/8] [F,B,]2 z z z z2 | %15
[M:1/8] x |[M:4/4] x5[K:treble] x5/2[K:bass] x/ | x8 | [G,B,]2 E,2[K:treble] z4[K:bass] | %19
[M:7/8] x7 |] %20
V:4
 x8 | x8 | z2 .[A,E]2 z4 | z CB,[EGB] EDCd |[M:7/8] x7 |[M:1/8] x |[M:4/4] x8 | z2 .[A,E]2 z4 | %8
 .[DG]2 z e [EAc][FA][GB]c |[M:7/8] x7 |[M:1/8] x |[M:4/4] x8 | x8 | z A,G,G z A,G,d |[M:7/8] x7 | %15
[M:1/8] x |[M:4/4] x8 | x8 | G4 z4 |[M:7/8] x7 |] %20
V:5
 x8 | x8 | x8 | x8 |[M:7/8] x7 |[M:1/8] x |[M:4/4] x8 | x8 | z2 E2 z4 |[M:7/8] x7 |[M:1/8] x | %11
[M:4/4] x8 | x8 | x8 |[M:7/8] x7 |[M:1/8] x |[M:4/4] x8 | x8 | z2 B,2 z4 |[M:7/8] x7 |] %20
V:6
 x8 | x5[K:treble] x3 | x2[K:bass] x6 | x8 |[M:7/8] x7 |[M:1/8] x |[M:4/4] x5[K:treble] x3 | %7
 x2[K:bass] x6 | B,,2[K:treble] E,2[K:bass] A,,2 z2 |[M:7/8] x7 |[M:1/8] x | %11
[M:4/4][K:treble] x15/2[K:bass] x/ | x8 | x8 |[M:7/8] x7 |[M:1/8] x | %16
[M:4/4] x5[K:treble] x5/2[K:bass] x/ | x8 | x3[K:treble] x4[K:bass] x |[M:7/8] x7 |] %20

